X: 4879
T: Braes Of Locheil, The
R: jig
M: 6/8
K: Amixolydian
|:d/B/|A>GB A2e/g/|a>ge d<eg|B2A G>AB|d>eg e>dB|
A>GB A2e/g/|a>ge d<eg|B<GA B>de|B2A A2:|
|:e/g/|a2e/g/ abe/g/|a>ge d<eg|B2A G>AB|d>eg e<dB|
[1 a2e/g/ abe/g/|a>ge d<eg|B<GA B>de|B2A A2:|
[2 A>GB A2e/g/|a>ge d<eg|B<GA B>de|B2A A2:|

